src/assets/img/spare_parts/BONUM.svg

<svg width="50" height="261" viewBox="0 0 50 261" fill="none" xmlns="http://www.w3.org/2000/svg">
<path d="M35.2632 223.721C39.9255 223.721 43.4066 225.49 45.7064 229.027C47.9853 232.564 49.1248 237.997 49.1248 245.326C49.1248 248.423 49.0202 251.371 48.8111 254.168C48.623 256.943 48.2989 258.781 47.839 259.682C47.3581 260.561 46.3964 261 44.9537 261H4.49812C3.22277 261 2.3133 260.676 1.76971 260.029C1.22612 259.359 0.860246 257.451 0.67208 254.307C0.483914 251.163 0.389832 248.377 0.389832 245.95C0.389832 231.362 4.73855 224.068 13.436 224.068H14.7218C16.9171 224.068 18.8823 224.634 20.6176 225.767C22.332 226.9 23.5969 228.518 24.4123 230.622C26.2104 226.022 29.4614 223.721 34.1656 223.721H35.2632ZM14.8472 233.674H13.9378C11.6798 233.674 10.0908 234.587 9.1709 236.413C8.23007 238.24 7.75966 241.419 7.75966 245.95C7.75966 247.406 7.81192 249.14 7.91646 251.151H20.9313V242.135C20.9313 236.494 18.9032 233.674 14.8472 233.674ZM35.1378 233.396H34.291C32.1376 233.396 30.465 234.136 29.2733 235.616C28.0816 237.095 27.4857 239.268 27.4857 242.135V251.151H41.6295L41.7549 245.326C41.7549 241.118 41.2741 238.078 40.3123 236.205C39.3297 234.333 37.6048 233.396 35.1378 233.396Z" fill="white" fill-opacity="0.1"/>
<path d="M29.0851 170.435C35.6082 170.435 40.5841 172.204 44.0129 175.741C47.4208 179.255 49.1248 184.237 49.1248 190.687C49.1248 197.114 47.4208 202.096 44.0129 205.633C40.5841 209.147 35.6082 210.904 29.0851 210.904H20.4295C13.6555 210.904 8.62731 209.078 5.34486 205.425C2.04151 201.772 0.389832 196.86 0.389832 190.687C0.389832 184.237 2.10423 179.255 5.53303 175.741C8.96183 172.204 13.9273 170.435 20.4295 170.435H29.0851ZM29.0851 180.388H20.4295C16.248 180.388 13.1642 181.22 11.178 182.884C9.1709 184.549 8.16735 187.15 8.16735 190.687C8.16735 194.201 9.1709 196.802 11.178 198.49C13.1642 200.154 16.248 200.986 20.4295 200.986H29.0851C33.2875 200.986 36.3922 200.154 38.3993 198.49C40.3855 196.802 41.3786 194.201 41.3786 190.687C41.3786 187.15 40.3855 184.549 38.3993 182.884C36.3922 181.22 33.2875 180.388 29.0851 180.388Z" fill="white" fill-opacity="0.1"/>
<path d="M46.0514 115.901C46.7622 115.901 47.3685 116.19 47.8703 116.768C48.3721 117.322 48.623 117.981 48.623 118.744V125.923C48.623 127.032 48.4975 127.899 48.2466 128.523C47.9958 129.148 47.3476 129.726 46.3023 130.257L15.0354 146.036C14.7009 146.221 14.5336 146.429 14.5336 146.66C14.5336 146.891 14.7009 147.007 15.0354 147.007H47.3372C47.6926 147.007 47.9958 147.145 48.2466 147.423C48.4975 147.677 48.623 147.989 48.623 148.359V154.393C48.623 154.786 48.4975 155.121 48.2466 155.399C47.9958 155.676 47.6926 155.815 47.3372 155.815H3.46321C2.75236 155.815 2.14604 155.537 1.64427 154.983C1.14249 154.428 0.891607 153.757 0.891607 152.971V145.307C0.891607 144.429 1.05887 143.782 1.39338 143.366C1.7279 142.949 2.25058 142.556 2.96143 142.186L35.9845 125.645C36.319 125.483 36.4863 125.298 36.4863 125.09C36.4863 124.836 36.2877 124.709 35.8904 124.709H2.11468C1.2993 124.709 0.891607 124.258 0.891607 123.356V117.253C0.891607 116.351 1.2993 115.901 2.11468 115.901H46.0514Z" fill="white" fill-opacity="0.1"/>
<path d="M30.9668 61.2274C43.0721 61.2274 49.1248 67.7353 49.1248 80.751C49.1248 93.7899 43.0721 100.309 30.9668 100.309H2.11468C1.78017 100.309 1.49792 100.171 1.26794 99.8933C1.01705 99.6158 0.891607 99.2806 0.891607 98.8876V91.848C0.891607 91.455 1.01705 91.1197 1.26794 90.8423C1.49792 90.5649 1.78017 90.4262 2.11468 90.4262H30.9668C34.7928 90.4262 37.5526 89.7442 39.2461 88.3802C40.9186 86.9931 41.7549 84.45 41.7549 80.751C41.7549 77.2832 40.9918 74.8096 39.4656 73.33C37.9184 71.8504 35.0855 71.1106 30.9668 71.1106H2.11468C1.78017 71.1106 1.49792 70.9719 1.26794 70.6944C1.01705 70.417 0.891607 70.0818 0.891607 69.6888V62.6492C0.891607 62.2561 1.01705 61.9209 1.26794 61.6435C1.49792 61.3661 1.78017 61.2274 2.11468 61.2274H30.9668Z" fill="white" fill-opacity="0.1"/>
<path d="M47.6508 0C48.2989 0 48.623 0.393036 48.623 1.17905V8.35739C48.623 8.65793 48.4975 8.9238 48.2466 9.15498C47.9749 9.38617 47.6717 9.50175 47.3372 9.50175H17.4816C17.0425 9.50175 16.823 9.57112 16.823 9.70982C16.823 9.80231 17.5129 10.23 18.8928 10.9929L29.2419 16.7495C30.1409 17.2581 30.5904 18.0672 30.5904 19.1769V26.3206C30.5904 27.4071 30.2246 28.17 29.4928 28.6093L20.1472 33.8457C17.9311 35.0941 16.823 35.7645 16.823 35.857C16.823 35.9957 17.0425 36.0651 17.4816 36.0651H47.3372C47.6717 36.0651 47.9749 36.1806 48.2466 36.4118C48.4975 36.643 48.623 36.9089 48.623 37.2094V44.3878C48.623 45.1738 48.2989 45.5668 47.6508 45.5668H3.46321C2.75236 45.5668 2.14604 45.2894 1.64427 44.7345C1.14249 44.1797 0.891607 43.5092 0.891607 42.7232V36.932C0.891607 35.7298 1.40384 34.8513 2.42829 34.2965L15.8194 26.9794C20.189 24.5982 22.4784 23.3383 22.6875 23.1995C22.8965 23.0608 23.0011 22.9221 23.0011 22.7834C23.0011 22.6216 22.7816 22.4135 22.3425 22.1592L6.19161 13.3163C3.49457 11.8367 2.03105 10.9929 1.80107 10.7848C1.55019 10.5536 1.34111 10.2531 1.17386 9.88322C0.98569 9.4902 0.891607 9.07407 0.891607 8.63481V2.8436C0.891607 2.05756 1.15295 1.38712 1.67563 0.832275C2.17741 0.277435 2.77326 0 3.46321 0H47.6508Z" fill="white" fill-opacity="0.1"/>
</svg>

<svg width="50" height="261" fill="none" xmlns="http://www.w3.org/2000/svg"><path d="M35.263 223.721c4.663 0 8.144 1.769 10.443 5.306 2.28 3.537 3.419 8.97 3.419 16.299 0 3.097-.105 6.045-.314 8.842-.188 2.775-.512 4.613-.972 5.514-.48.879-1.443 1.318-2.885 1.318H4.498c-1.275 0-2.185-.324-2.728-.971-.544-.67-.91-2.578-1.098-5.722-.188-3.144-.282-5.93-.282-8.357 0-14.588 4.349-21.882 13.046-21.882h1.286c2.195 0 4.16.566 5.896 1.699 1.714 1.133 2.979 2.751 3.794 4.855 1.798-4.6 5.05-6.901 9.754-6.901h1.097zm-20.416 9.953h-.91c-2.257 0-3.846.913-4.766 2.739-.94 1.827-1.411 5.006-1.411 9.537 0 1.456.052 3.19.156 5.201h13.015v-9.016c0-5.641-2.028-8.461-6.084-8.461zm20.29-.278h-.846c-2.153 0-3.826.74-5.018 2.22-1.191 1.479-1.787 3.652-1.787 6.519v9.016h14.143l.126-5.825c0-4.208-.48-7.248-1.443-9.121-.982-1.872-2.707-2.809-5.174-2.809zm-6.052-62.961c6.523 0 11.5 1.769 14.928 5.306 3.408 3.514 5.112 8.496 5.112 14.946 0 6.427-1.704 11.409-5.112 14.946-3.429 3.514-8.405 5.271-14.928 5.271H20.43c-6.774 0-11.803-1.826-15.085-5.479C2.042 201.772.39 196.86.39 190.687c0-6.45 1.714-11.432 5.143-14.946 3.429-3.537 8.394-5.306 14.896-5.306h8.656zm0 9.953H20.43c-4.182 0-7.266.832-9.252 2.496-2.007 1.665-3.01 4.266-3.01 7.803 0 3.514 1.003 6.115 3.01 7.803 1.986 1.664 5.07 2.496 9.252 2.496h8.655c4.203 0 7.307-.832 9.314-2.496 1.986-1.688 2.98-4.289 2.98-7.803 0-3.537-.993-6.138-2.98-7.803-2.007-1.664-5.111-2.496-9.314-2.496zm16.966-64.487c.711 0 1.317.289 1.82.867.501.554.752 1.213.752 1.976v7.179c0 1.109-.125 1.976-.376 2.6-.251.625-.9 1.203-1.945 1.734l-31.267 15.779c-.334.185-.501.393-.501.624 0 .231.167.347.501.347h32.302c.356 0 .659.138.91.416.25.254.376.566.376.936v6.034c0 .393-.125.728-.376 1.006a1.184 1.184 0 01-.91.416H3.463c-.71 0-1.317-.278-1.819-.832-.502-.555-.752-1.226-.752-2.012v-7.664c0-.878.167-1.525.501-1.941.335-.417.858-.81 1.568-1.18l33.023-16.541c.335-.162.502-.347.502-.555 0-.254-.198-.381-.596-.381H2.115c-.816 0-1.223-.451-1.223-1.353v-6.103c0-.902.407-1.352 1.223-1.352H46.05zM30.967 61.227c12.105 0 18.158 6.508 18.158 19.524 0 13.039-6.053 19.558-18.158 19.558H2.115c-.335 0-.617-.138-.847-.416a1.447 1.447 0 01-.376-1.005v-7.04c0-.393.125-.728.376-1.006.23-.277.512-.416.847-.416h28.852c3.826 0 6.586-.682 8.28-2.046 1.672-1.387 2.508-3.93 2.508-7.629 0-3.468-.763-5.941-2.29-7.421-1.547-1.48-4.38-2.22-8.498-2.22H2.115c-.335 0-.617-.138-.847-.416a1.446 1.446 0 01-.376-1.005v-7.04c0-.393.125-.728.376-1.005.23-.278.512-.417.847-.417h28.852zM47.65 0c.649 0 .973.393.973 1.179v7.178c0 .3-.125.567-.376.798a1.369 1.369 0 01-.91.347H17.482c-.44 0-.659.07-.659.208 0 .092.69.52 2.07 1.283l10.349 5.757c.899.508 1.348 1.317 1.348 2.427v7.144c0 1.086-.365 1.849-1.097 2.288l-9.346 5.237c-2.216 1.248-3.324 1.919-3.324 2.011 0 .139.22.208.659.208h29.855c.335 0 .638.116.91.347.25.231.376.497.376.797v7.179c0 .786-.324 1.179-.972 1.179H3.463c-.71 0-1.317-.278-1.819-.833-.502-.554-.752-1.225-.752-2.01v-5.792c0-1.202.512-2.08 1.536-2.636L15.82 26.98c4.37-2.38 6.66-3.64 6.868-3.78.21-.138.314-.277.314-.416 0-.161-.22-.37-.659-.624l-16.15-8.843c-2.697-1.48-4.16-2.323-4.39-2.531a2.742 2.742 0 01-.628-.902 2.855 2.855 0 01-.282-1.248V2.844c0-.786.26-1.457.784-2.012C2.177.277 2.773 0 3.463 0h44.188z" fill="#fff" fill-opacity=".1"/></svg>
